other/write_japanese.svg

<?xml version="1.0" encoding="UTF-8" standalone="no"?>
<svg
   viewBox="0 0 48 48"
   version="1.1"
   id="svg8"
   xml:space="preserve"
   xmlns="http://www.w3.org/2000/svg"
   xmlns:svg="http://www.w3.org/2000/svg"><defs
     id="defs4"><style
       id="style2">.a{fill:none;stroke:#fff;stroke-linecap:round;stroke-linejoin:round;}</style><style
       id="style822">.cls-1{fill:none;stroke:#000;stroke-linecap:round;stroke-linejoin:round;}</style><style
       id="style913">.cls-1{fill:none;stroke:#fff;stroke-linecap:round;stroke-linejoin:round;}</style></defs><path
     class="a"
     d="m 40.5,5.5 h -33 a 2,2 0 0 0 -2,2 v 33 a 2,2 0 0 0 2,2 h 33 a 2,2 0 0 0 2,-2 v -33 a 2,2 0 0 0 -2,-2 z"
     id="path6"
     style="display:inline;fill:none;fill-opacity:1" /><path
     style="font-variation-settings:normal;opacity:1;vector-effect:none;fill:none;fill-opacity:1;stroke:#ffffff;stroke-width:1;stroke-linecap:round;stroke-linejoin:round;stroke-miterlimit:4;stroke-dasharray:none;stroke-dashoffset:0;stroke-opacity:1;-inkscape-stroke:none;stop-color:#000000;stop-opacity:1"
     d="M 14.262948,19.298804 5.5,33.609561"
     id="path1648" /><path
     style="font-variation-settings:normal;opacity:1;vector-effect:none;fill:none;fill-opacity:1;stroke:#ffffff;stroke-width:1;stroke-linecap:round;stroke-linejoin:round;stroke-miterlimit:4;stroke-dasharray:none;stroke-dashoffset:0;stroke-opacity:1;-inkscape-stroke:none;stop-color:#000000;stop-opacity:1"
     d="M 31.349339,7.8655064 14.262948,19.298804"
     id="path1746" /><path
     style="font-variation-settings:normal;opacity:1;vector-effect:none;fill:none;fill-opacity:1;stroke:#ffffff;stroke-width:1;stroke-linecap:round;stroke-linejoin:round;stroke-miterlimit:4;stroke-dasharray:none;stroke-dashoffset:0;stroke-opacity:1;-inkscape-stroke:none;stop-color:#000000;stop-opacity:1"
     d="M 42.5,22.627417 H 28.216659 c -3.206756,0.03542 -7.734449,3.123087 -7.707745,7.865506 V 42.5"
     id="path1748" /><path
     style="font-variation-settings:normal;opacity:1;vector-effect:none;fill:none;fill-opacity:1;stroke:#ffffff;stroke-width:1;stroke-linecap:round;stroke-linejoin:round;stroke-miterlimit:4;stroke-dasharray:none;stroke-dashoffset:0;stroke-opacity:1;-inkscape-stroke:none;stop-color:#000000;stop-opacity:1"
     d="M 31.349339,7.8655064 29.726656,22.627417"
     id="path1750" /><path
     style="font-variation-settings:normal;opacity:1;vector-effect:none;fill:none;fill-opacity:1;stroke:#ffffff;stroke-width:1;stroke-linecap:round;stroke-linejoin:round;stroke-miterlimit:4;stroke-dasharray:none;stroke-dashoffset:0;stroke-opacity:1;-inkscape-stroke:none;stop-color:#000000;stop-opacity:1"
     d="m 26.41945,11.164324 4.275597,2.65342"
     id="path1752" /><path
     style="font-variation-settings:normal;opacity:1;vector-effect:none;fill:none;fill-opacity:1;stroke:#ffffff;stroke-width:1;stroke-linecap:round;stroke-linejoin:round;stroke-miterlimit:4;stroke-dasharray:none;stroke-dashoffset:0;stroke-opacity:1;-inkscape-stroke:none;stop-color:#000000;stop-opacity:1"
     d="m 14.262948,19.298804 8.68652,5.681606"
     id="path1754" /><path
     style="font-variation-settings:normal;opacity:1;vector-effect:none;fill:none;fill-opacity:1;stroke:#ffffff;stroke-width:1;stroke-linecap:round;stroke-linejoin:round;stroke-miterlimit:4;stroke-dasharray:none;stroke-dashoffset:0;stroke-opacity:1;-inkscape-stroke:none;stop-color:#000000;stop-opacity:1"
     d="m 30.51546,25.805172 c -0.77587,4.436783 -0.584203,8.45921 0.281716,12.327885"
     id="path1756" /><path
     style="font-variation-settings:normal;opacity:1;vector-effect:none;fill:none;fill-opacity:1;stroke:#ffffff;stroke-width:1;stroke-linecap:round;stroke-linejoin:round;stroke-miterlimit:4;stroke-dasharray:none;stroke-dashoffset:0;stroke-opacity:1;-inkscape-stroke:none;stop-color:#000000;stop-opacity:1"
     d="m 26.041813,27.957481 c 3.475409,0.353141 6.918015,0.165024 10.333337,-0.473283"
     id="path1758" /><path
     style="font-variation-settings:normal;opacity:1;vector-effect:none;fill:none;fill-opacity:1;stroke:#ffffff;stroke-width:1;stroke-linecap:round;stroke-linejoin:round;stroke-miterlimit:4;stroke-dasharray:none;stroke-dashoffset:0;stroke-opacity:1;-inkscape-stroke:none;stop-color:#000000;stop-opacity:1"
     d="m 34.549631,29.591432 c -0.1825,5.723988 -8.750717,11.109578 -8.665579,6.468196 0.04425,-2.412215 3.272815,-5.155717 6.51327,-5.19484 2.468812,-0.02981 5.366823,0.882713 5.386407,3.098874 0.02592,2.933083 -2.369042,4.624757 -4.935661,4.834244"
     id="path1760" /></svg>

<?xml version="1.0" encoding="UTF-8"?><svg id="a" xmlns="http://www.w3.org/2000/svg" viewBox="0 0 48 48"><defs><style>.l{fill:none;stroke:#fff;stroke-linecap:round;stroke-linejoin:round;}</style></defs><path id="b" class="l" d="M40.5,5.5H7.5c-1.1046,0-2,.8954-2,2V40.5c0,1.1046,.8954,2,2,2H40.5c1.1046,0,2-.8954,2-2V7.5c0-1.1046-.8954-2-2-2Z"/><path id="c" class="l" d="M14.2629,19.2988l-8.7629,14.3108"/><path id="d" class="l" d="M31.3493,7.8655L14.2629,19.2988"/><path id="e" class="l" d="M42.5,22.6274h-14.2833c-3.2068,.0354-7.7344,3.1231-7.7077,7.8655v12.0071"/><path id="f" class="l" d="M31.3493,7.8655l-1.6227,14.7619"/><path id="g" class="l" d="M26.4195,11.1643l4.2756,2.6534"/><path id="h" class="l" d="M14.2629,19.2988l8.6865,5.6816"/><path id="i" class="l" d="M30.5155,25.8052c-.7759,4.4368-.5842,8.4592,.2817,12.3279"/><path id="j" class="l" d="M26.0418,27.9575c3.4754,.3531,6.918,.165,10.3333-.4733"/><path id="k" class="l" d="M34.5496,29.5914c-.1825,5.724-8.7507,11.1096-8.6656,6.4682,.0443-2.4122,3.2728-5.1557,6.5133-5.1948,2.4688-.0298,5.3668,.8827,5.3864,3.0989,.0259,2.9331-2.369,4.6248-4.9357,4.8342"/></svg>
